apps/extension/src/@talisman/theme/icons/eye-plus.svg

<svg width="16" height="16" viewBox="0 0 16 16" fill="none" xmlns="http://www.w3.org/2000/svg">
<g clip-path="url(#clip0_678_11637)">
<path fill-rule="evenodd" clip-rule="evenodd" d="M13.2998 3.82959C11.993 2.68664 10.2103 1.66642 8.00008 1.66642C5.26724 1.66642 3.18789 3.22619 1.85388 4.64915C1.17775 5.37035 0.662563 6.08773 0.316292 6.62389C0.142536 6.89294 0.00967526 7.11889 -0.0811296 7.28032C-0.12657 7.36111 -0.161591 7.42593 -0.186042 7.47214C-0.198271 7.49525 -0.207867 7.51372 -0.21481 7.52723L-0.223237 7.54373L-0.225957 7.54911L-0.226943 7.55107L-0.227342 7.55187C-0.227516 7.55221 -0.227679 7.55254 0.666748 7.99975L-0.227679 7.55254C-0.368443 7.83407 -0.368443 8.16544 -0.227679 8.44697L0.666748 7.99975C-0.227679 8.44697 -0.227516 8.44729 -0.227342 8.44764L-0.226943 8.44844L-0.225957 8.4504L-0.223237 8.45578L-0.21481 8.47228C-0.207867 8.48578 -0.198271 8.50426 -0.186042 8.52737C-0.161591 8.57357 -0.12657 8.6384 -0.0811296 8.71918C0.00967526 8.88061 0.142536 9.10657 0.316292 9.37561C0.662563 9.91177 1.17775 10.6292 1.85388 11.3504C3.18789 12.7733 5.26724 14.3331 8.00008 14.3331C10.7329 14.3331 12.8123 12.7733 14.1463 11.3504C14.5475 10.9224 14.892 10.4959 15.1782 10.1077C14.6359 9.68473 14.1728 9.16497 13.8148 8.57439C13.5287 8.99153 13.1505 9.48825 12.6872 9.98248C11.5212 11.2262 9.93391 12.3331 8.00008 12.3331C6.06626 12.3331 4.47893 11.2262 3.31295 9.98248C2.73908 9.37035 2.29593 8.7544 1.99637 8.29056C1.92786 8.18448 1.8672 8.08689 1.81454 7.99975C1.8672 7.91261 1.92786 7.81502 1.99637 7.70895C2.29593 7.24511 2.73908 6.62916 3.31295 6.01703C4.47893 4.77331 6.06626 3.66642 8.00008 3.66642C9.93391 3.66642 11.5212 4.77331 12.6872 6.01703C12.8158 6.15418 12.9378 6.29152 13.0531 6.4273C13.0181 6.1732 13.0001 5.91371 13.0001 5.65C13.0001 5.01308 13.1055 4.40079 13.2998 3.82959Z" fill="currentColor"/>
<path d="M8 10C9.10457 10 10 9.10457 10 8C10 6.89543 9.10457 6 8 6C6.89543 6 6 6.89543 6 8C6 9.10457 6.89543 10 8 10Z" stroke="currentColor" stroke-width="2" stroke-linecap="round" stroke-linejoin="round"/>
<path fill-rule="evenodd" clip-rule="evenodd" d="M13.5667 2.26667C13.5667 1.71439 13.1189 1.26667 12.5667 1.26667C12.0144 1.26667 11.5667 1.71439 11.5667 2.26667V2.76667H11.0667C10.5144 2.76667 10.0667 3.21439 10.0667 3.76667C10.0667 4.31895 10.5144 4.76667 11.0667 4.76667H11.5667V5.26669C11.5667 5.81897 12.0144 6.26669 12.5667 6.26669C13.1189 6.26669 13.5667 5.81897 13.5667 5.26669V4.76667H14.0667C14.619 4.76667 15.0667 4.31895 15.0667 3.76667C15.0667 3.21439 14.619 2.76667 14.0667 2.76667H13.5667V2.26667Z" fill="currentColor"/>
</g>
<defs>
<clipPath id="clip0_678_11637">
<rect width="16" height="16" fill="white"/>
</clipPath>
</defs>
</svg>

<svg viewBox="0 0 16 16" fill="none" xmlns="http://www.w3.org/2000/svg">
    <g clip-path="url(#clip0_678_11637)">
        <path fill-rule="evenodd" clip-rule="evenodd" d="M13.3 3.83C11.993 2.687 10.21 1.666 8 1.666c-2.733 0-4.812 1.56-6.146 2.983A14.116 14.116 0 00-.081 7.28a8.578 8.578 0 00-.134.247l-.008.017-.003.005v.002h-.001c0 .001 0 .002.894.449l-.895-.447a1 1 0 000 .894L.667 8c-.895.447-.895.447-.894.448l.001.002.003.006.008.016a5.332 5.332 0 00.134.247 14.116 14.116 0 001.935 2.631C3.188 12.773 5.267 14.333 8 14.333s4.812-1.56 6.146-2.983c.401-.428.746-.854 1.032-1.242a5.68 5.68 0 01-1.363-1.534c-.286.418-.665.914-1.128 1.408-1.166 1.244-2.753 2.351-4.687 2.351-1.934 0-3.521-1.107-4.687-2.35A12.117 12.117 0 011.815 8a12.117 12.117 0 011.498-1.983C4.479 4.773 6.066 3.667 8 3.667c1.934 0 3.521 1.106 4.687 2.35.129.137.25.275.366.41A5.694 5.694 0 0113.3 3.83z" fill="currentColor"/>
        <path d="M8 10a2 2 0 100-4 2 2 0 000 4z" stroke="currentColor" stroke-width="2" stroke-linecap="round" stroke-linejoin="round"/>
        <path fill-rule="evenodd" clip-rule="evenodd" d="M13.567 2.267a1 1 0 00-2 0v.5h-.5a1 1 0 100 2h.5v.5a1 1 0 102 0v-.5h.5a1 1 0 100-2h-.5v-.5z" fill="currentColor"/>
    </g>
    <defs>
        <clipPath id="clip0_678_11637">
            <path fill="#fff" d="M0 0h16v16H0z"/>
        </clipPath>
    </defs>
</svg>
